X:1
T:With Courage Strong
T:With Courage Strong
T:Edmund Simon Lorenz
T:Belle Case Harrington, 1907
T:Public Domain Courtesy of the Cyber Hymnal™
T:Public Domain Courtesy of the Cyber Hymnal™
C:Edmund Simon Lorenz
Z:Public Domain
Z:Courtesy of the Cyber Hymnal™
%%score ( 1 2 ) ( 3 4 )
L:1/8
Q:1/4=103
M:4/4
K:Bb
V:1 treble 
V:2 treble 
V:3 bass 
V:4 bass 
V:1
 [DF]2 | [DB]3 [DF] [^CA]2 [CG]2 | F3 (z E) [B,D]2 [DF]2 | [EG]>[FA] [GB]>[Gc] [Gd]2 [GBe]2 | %4
w: 1.~With|cour- age strong, we’ll|march * a- long,|* Christ’s ban- ner ev- er|
w: 2.~With|loy- al heart, we’ll|do * our part,|* To speed the com- ing|
w: 3.~With|faith- ful will His|ranks * to fill,|* We’ll tell with you the|
w: 4.~We’ll|know no fear with|Je- * sus near,|* He com- forts, strength- ens|
 [FBd]4 [FAc]2 [FBd]2 | [Fce]>[F=Bd] [Fce]4 [FAc]2 | [FBd]>[=EB^c] [FBd]4 [DGB]2 | %7
w: float- ing o’er|us; With pur- pose|true His will to|
w: day of glad-|ness, When right- eous-|ness shall come to|
w: pre- cious sto-|ry, Till all the|earth shall know His|
w: and pro- tects|us. We can not|fail, we must pre-|
 [GB]>[^FA] [GB][B,EG] [B,=F]2 [FBd]2 | c4 [EA]2 [DFB]2 ||"^Refrain" [Bd]>"^Girls"[ce] | %10
w: do We’ll van- quish ev- ery|foe be- fore|* us.|
w: bless And ban- ish sin, and|death and sad-|* ness.|
w: worth, And wor- ship low the|King of glo-|* ry.|
w: vail, For in the bat- tle|He di- rects|* us.|
 .[df]2"^School" [FB]>[FA] [FB][DF]"^Boys" [Bd]>[ce] | .e2"^School" [FB]>[FA] [FB][DF] [Fd]>[Ff] | %12
w: ||
w: For- ward march! Strong and stea- dy!|For- ward march! Ev- er rea- dy!|
w: ||
w: ||
 .[Fe]2 [Fc]>[Fd] [Fe]2 [Af]>[Fc] | [Fd]>[Ge] [Fd]>[Ec] [DB]2"^Boys" [Bd]>[ce] | %14
w: ||
w: Ne- ver doubt, nev- er fear,|God with help is ev- er near!|
w: ||
w: ||
 [df]2"^School" [FB]>[FA] [FB][DF]"^Girls" [Fd]>[_Af] | [Ge]2 [GB]>[^FA] [GB][EG] [GB]>[Ge] | %16
w: ||
w: For- ward march! God di- rects us!|For- ward march! He pro- tects us!|
w: ||
w: ||
 [Fd]>[Fd] [=Ec][EB] [Fd]2 [_Ec]2 | [DB]6 |] %18
w: ||
w: In the hour of need help|will|
w: ||
w: ||
V:2
 x2 | x8 | D2 C2 x5 | B,2 E2 x4 | x8 | x8 | x8 | E2 x6 | [E-B]2 x6 || x2 | x8 | x8 | x8 | x8 | x8 | %15
 x8 | x8 | x6 |] %18
V:3
 B,2 | B,,2 [D,F,B,]2 B,,2 [=E,B,]2 | F,4 [B,,F,]2 [B,,B,]2 x | E,4 E,,2 C,,2 | %4
 (F,,2 F,>=E,) F,2 z2 | F,,2 (F,>=E, F,2) z2 | B,,2 (B,>A, G,2) [G,,G,]2 | %7
 [E,,E,]4 [D,,D,]2 [B,,,B,,]2 | [F,,F,]4 [B,,,B,,]2 x2 || z2 | z2 [B,,D]>[B,,C] [B,,D][B,,B,] z2 | %11
 z2 [B,,D]>[B,,C] [B,,D][B,,B,] B,>[B,D] | [F,C]2 [F,A,]>[F,B,] [F,C]2 [F,C]>[F,A,] | %13
 B,>B, [F,A,]>[F,A,] [B,,B,]2 z2 | z2 [B,,D]>[B,,C] [B,,D][B,,B,] z2 | %15
 z2 [E,B,]>[E,C] [E,B,][E,B,] [E,B,]>[E,B,] | [F,B,]>[F,B,] [G,B,][G,B,] [F,B,]2 [F,A,]2 | %17
 [B,,F,]6 |] %18
V:4
 x2 | x8 | B,,2 A,,2 x5 | x8 | x8 | x8 | x8 | x8 | x8 || x2 | x8 | x6 B,3/2 x/ | x8 | B,>B, x6 | %14
 x8 | x8 | x8 | x6 |] %18

